src/media/icons/logo.svg

<svg width="119" height="20" viewBox="0 0 119 20" fill="none" xmlns="http://www.w3.org/2000/svg">
<path d="M35.6658 2.97226C35.6932 3.00003 35.6932 3.00003 35.7205 3.00003C35.6932 3.00003 35.6932 2.97226 35.6658 2.97226ZM37.1161 13.2223C36.0763 15.1667 34.5986 16.6389 32.9294 17.3334C32.1906 17.6945 31.4244 17.8611 30.6856 17.8611C30.0562 17.8611 29.4268 17.7223 28.8522 17.4723C28.688 17.3889 28.4965 17.2778 28.2775 17.1667L28.1681 17.0556C25.5138 15.25 24.9665 10.6389 26.9914 6.83337C28.0039 4.88892 29.4816 3.4167 31.1781 2.69448C31.9443 2.33337 32.6831 2.1667 33.422 2.1667C34.0787 2.1667 34.7081 2.30559 35.2553 2.55559L35.6932 2.80559C35.7205 2.80559 35.7479 2.83337 35.7479 2.83337L35.83 2.86115L35.9394 2.97226C37.4992 4.02781 38.3748 6.08337 38.3475 8.50003L39.9619 8.52781C39.5788 5.97226 38.1833 3.75003 36.1584 2.4167L36.131 2.38892C36.1036 2.38892 36.1036 2.36115 36.0763 2.36115L36.0215 2.33337C34.8175 1.55559 33.4493 1.1667 32.0538 1.1667C27.6208 1.1667 24.0361 5.13892 24.0361 10.0278C24.0361 12.8889 25.2675 15.5556 27.3745 17.1945C27.5661 17.3611 27.6755 17.4445 27.8124 17.5278C27.9492 17.6389 28.0586 17.6945 28.1681 17.7778C28.3323 17.8611 28.4965 17.9723 28.6606 18.0278C29.7278 18.5834 30.8771 18.8611 32.0538 18.8611C35.83 18.8611 39.1137 15.9445 39.9072 11.8889L37.6634 11.9445C37.4992 12.3889 37.3076 12.8334 37.1161 13.2223Z" fill="white"/>
<path d="M43.1979 18.8889V1.13892H41.5014V18.8889H43.1979Z" fill="white"/>
<path d="M52.352 9.94448C55.4441 9.75004 57.7427 7.6667 57.7427 5.38892C57.7427 2.38892 54.2675 1.13892 51.0112 1.13892C47.7002 1.13892 46.7424 1.13892 46.7424 1.13892H45.4563V18.8334H47.2623V10.0278C51.2575 10.0278 55.7451 10.1389 55.7451 18.75V18.8334H57.7427V18.8056C57.7427 14.1945 56.1009 11.1111 52.352 9.94448ZM47.2623 9.44448V1.75003H51.9963C53.5013 1.80559 54.8969 2.50003 55.4441 3.83337C56.2651 5.77781 55.1431 8.08337 52.954 9.05559C52.3794 9.30559 51.75 9.4167 51.1754 9.44448H47.2623Z" fill="white"/>
<path d="M70.4586 2.97226C70.486 3.00003 70.486 3.00003 70.5133 3.00003C70.486 3.00003 70.486 2.97226 70.4586 2.97226ZM71.9089 13.2223C70.8691 15.1667 69.3914 16.6389 67.7222 17.3334C66.9834 17.6945 66.2172 17.8611 65.4784 17.8611C64.849 17.8611 64.2196 17.7223 63.645 17.4723C63.4808 17.3889 63.2893 17.2778 63.0703 17.1667L62.9609 17.0556C60.3066 15.25 59.7593 10.6389 61.7842 6.83337C62.7967 4.88892 64.2744 3.4167 65.9709 2.69448C66.7371 2.33337 67.4759 2.1667 68.2148 2.1667C68.8715 2.1667 69.5009 2.30559 70.0481 2.55559L70.486 2.80559C70.5133 2.80559 70.5407 2.83337 70.5407 2.83337L70.6228 2.86115L70.7322 2.97226C72.292 4.02781 73.1676 6.08337 73.1403 8.50003L74.7547 8.52781C74.3716 5.97226 72.9761 3.75003 70.9512 2.4167L70.9238 2.38892C70.8964 2.38892 70.8964 2.36115 70.8691 2.36115L70.8143 2.33337C69.6103 1.55559 68.2421 1.1667 66.8466 1.1667C62.4136 1.1667 58.8289 5.13892 58.8289 10.0278C58.8289 12.8889 60.0603 15.5556 62.1673 17.1945C62.3589 17.3611 62.4683 17.4445 62.6052 17.5278C62.742 17.6389 62.8514 17.6945 62.9609 17.7778C63.1251 17.8611 63.2893 17.9723 63.4534 18.0278C64.5206 18.5834 65.6699 18.8611 66.8466 18.8611C70.6228 18.8611 73.9065 15.9445 74.7 11.8889L72.4562 11.9445C72.292 12.3889 72.1004 12.8334 71.9089 13.2223Z" fill="white"/>
<path d="M88.7995 1.80559V1.1667H76.2942V18.8611H88.7995V18.1945H77.9634V10.3889H87.7597V9.6667H77.9634V1.80559H88.7995Z" fill="white"/>
<path d="M102.779 1.11115L96.8686 10.8334V10.8611L96.8413 10.8334L90.958 1.11115H88.7689L95.6099 11.4445V18.8611H97.3065V11.4445L104.147 1.11115H102.779Z" fill="white"/>
<path d="M111.257 1.13892H108.876L101.679 18.8611H103.184L105.565 12.4445H113.692L116.073 18.8611H118.481L111.257 1.13892ZM105.838 11.7223L109.642 1.52781L113.418 11.7223H105.838Z" fill="white"/>
<mask id="path-2-inside-1_19_28" fill="white">
<path d="M12.9289 12.9289C14.5465 14.5465 14.5465 17.1692 12.9289 18.7868C11.3113 20.4044 8.68867 20.4044 7.07107 18.7868C5.45347 17.1692 5.45347 14.5465 7.07107 12.9289C8.68867 11.3113 11.3113 11.3113 12.9289 12.9289Z"/>
<path d="M18.7868 7.07107C20.4044 8.68867 20.4044 11.3113 18.7868 12.9289C17.1692 14.5465 14.5465 14.5465 12.9289 12.9289C11.3113 11.3113 11.3113 8.68867 12.9289 7.07107C14.5465 5.45347 17.1692 5.45347 18.7868 7.07107Z"/>
<path d="M12.9289 1.2132C14.5465 2.83081 14.5465 5.45347 12.9289 7.07107C11.3113 8.68867 8.68867 8.68867 7.07107 7.07106C5.45347 5.45346 5.45347 2.83081 7.07107 1.2132C8.68867 -0.404401 11.3113 -0.404401 12.9289 1.2132Z"/>
<path d="M7.07107 7.07106C8.68867 8.68867 8.68867 11.3113 7.07107 12.9289C5.45347 14.5465 2.83081 14.5465 1.2132 12.9289C-0.404401 11.3113 -0.404401 8.68867 1.2132 7.07107C2.83081 5.45347 5.45347 5.45346 7.07107 7.07106Z"/>
</mask>
<path d="M12.2218 13.636C13.4489 14.8631 13.4489 16.8526 12.2218 18.0797L13.636 19.4939C15.6442 17.4858 15.6442 14.23 13.636 12.2218L12.2218 13.636ZM12.2218 18.0797C10.9947 19.3068 9.00526 19.3068 7.77818 18.0797L6.36396 19.4939C8.37209 21.502 11.6279 21.502 13.636 19.4939L12.2218 18.0797ZM7.77818 18.0797C6.5511 16.8526 6.5511 14.8631 7.77818 13.636L6.36396 12.2218C4.35583 14.23 4.35583 17.4858 6.36396 19.4939L7.77818 18.0797ZM7.77818 13.636C9.00526 12.409 10.9947 12.409 12.2218 13.636L13.636 12.2218C11.6279 10.2137 8.37209 10.2137 6.36396 12.2218L7.77818 13.636ZM18.0797 7.77818C19.3068 9.00526 19.3068 10.9947 18.0797 12.2218L19.4939 13.636C21.502 11.6279 21.502 8.37209 19.4939 6.36396L18.0797 7.77818ZM18.0797 12.2218C16.8526 13.4489 14.8631 13.4489 13.636 12.2218L12.2218 13.636C14.23 15.6442 17.4858 15.6442 19.4939 13.636L18.0797 12.2218ZM13.636 12.2218C12.409 10.9947 12.409 9.00525 13.636 7.77818L12.2218 6.36396C10.2137 8.37209 10.2137 11.6279 12.2218 13.636L13.636 12.2218ZM13.636 7.77818C14.8631 6.5511 16.8526 6.5511 18.0797 7.77818L19.4939 6.36396C17.4858 4.35583 14.2299 4.35583 12.2218 6.36396L13.636 7.77818ZM12.2218 1.92031C13.4489 3.14739 13.4489 5.13688 12.2218 6.36396L13.636 7.77818C15.6442 5.77005 15.6442 2.51423 13.636 0.506096L12.2218 1.92031ZM12.2218 6.36396C10.9947 7.59104 9.00526 7.59104 7.77818 6.36396L6.36396 7.77817C8.37209 9.7863 11.6279 9.78631 13.636 7.77818L12.2218 6.36396ZM7.77818 6.36396C6.5511 5.13688 6.5511 3.14739 7.77818 1.92031L6.36396 0.506096C4.35583 2.51422 4.35583 5.77004 6.36396 7.77817L7.77818 6.36396ZM7.77818 1.92031C9.00526 0.69323 10.9947 0.69323 12.2218 1.92031L13.636 0.506096C11.6279 -1.50203 8.37209 -1.50203 6.36396 0.506096L7.77818 1.92031ZM6.36396 7.77817C7.59104 9.00525 7.59104 10.9948 6.36396 12.2218L7.77818 13.636C9.7863 11.6279 9.7863 8.37208 7.77818 6.36396L6.36396 7.77817ZM6.36396 12.2218C5.13689 13.4489 3.14739 13.4489 1.92031 12.2218L0.506096 13.636C2.51422 15.6442 5.77005 15.6442 7.77818 13.636L6.36396 12.2218ZM1.92031 12.2218C0.69323 10.9947 0.69323 9.00526 1.92031 7.77818L0.506096 6.36396C-1.50203 8.37209 -1.50203 11.6279 0.506096 13.636L1.92031 12.2218ZM1.92031 7.77818C3.14739 6.5511 5.13689 6.55109 6.36396 7.77817L7.77818 6.36396C5.77005 4.35583 2.51422 4.35584 0.506096 6.36396L1.92031 7.77818Z" fill="white" mask="url(#path-2-inside-1_19_28)"/>
</svg>

<svg width="119" height="20" fill="none" xmlns="http://www.w3.org/2000/svg"><path d="M35.666 2.972c.027.028.027.028.055.028-.028 0-.028-.028-.055-.028Zm1.45 10.25c-1.04 1.945-2.517 3.417-4.187 4.111a5.1 5.1 0 0 1-2.243.528c-.63 0-1.26-.139-1.834-.389-.164-.083-.355-.194-.575-.305l-.109-.111c-2.654-1.806-3.201-6.417-1.177-10.223 1.013-1.944 2.49-3.416 4.187-4.139.766-.36 1.505-.527 2.244-.527.657 0 1.286.139 1.833.389l.438.25c.028 0 .055.027.055.027l.082.028.11.111c1.56 1.056 2.435 3.111 2.407 5.528l1.615.028c-.383-2.556-1.779-4.778-3.804-6.111l-.027-.028c-.027 0-.027-.028-.055-.028l-.054-.028a7.274 7.274 0 0 0-3.968-1.166c-4.433 0-8.018 3.972-8.018 8.86 0 2.862 1.231 5.529 3.338 7.168.192.166.302.25.438.333.137.11.247.167.356.25.164.083.329.194.493.25a7.3 7.3 0 0 0 3.393.833c3.776 0 7.06-2.917 7.853-6.972l-2.244.056c-.164.444-.355.888-.547 1.277ZM43.198 18.889V1.139H41.5v17.75h1.697ZM52.352 9.944c3.092-.194 5.39-2.277 5.39-4.555 0-3-3.474-4.25-6.73-4.25H45.455v17.694h1.806v-8.805c3.995 0 8.483.11 8.483 8.722v.083h1.998v-.027c0-4.612-1.642-7.695-5.391-8.862Zm-5.09-.5V1.75h4.734c1.505.056 2.9.75 3.448 2.083.821 1.945-.3 4.25-2.49 5.223-.575.25-1.204.36-1.779.388h-3.913ZM70.459 2.972c.027.028.027.028.054.028-.027 0-.027-.028-.054-.028Zm1.45 10.25c-1.04 1.945-2.518 3.417-4.187 4.111a5.1 5.1 0 0 1-2.244.528c-.629 0-1.258-.139-1.833-.389-.164-.083-.356-.194-.575-.305l-.11-.111c-2.653-1.806-3.2-6.417-1.176-10.223 1.013-1.944 2.49-3.416 4.187-4.139.766-.36 1.505-.527 2.244-.527.656 0 1.286.139 1.833.389l.438.25c.027 0 .055.027.055.027l.082.028.11.111c1.559 1.056 2.435 3.111 2.407 5.528l1.615.028c-.383-2.556-1.779-4.778-3.804-6.111l-.027-.028c-.028 0-.028-.028-.055-.028l-.055-.028a7.274 7.274 0 0 0-3.967-1.166c-4.433 0-8.018 3.972-8.018 8.86 0 2.862 1.231 5.529 3.338 7.168.192.166.301.25.438.333.137.11.246.167.356.25.164.083.328.194.492.25a7.3 7.3 0 0 0 3.394.833c3.776 0 7.06-2.917 7.853-6.972l-2.244.056c-.164.444-.356.888-.547 1.277ZM88.8 1.806v-.64H76.293v17.695H88.8v-.666H77.963v-7.806h9.797v-.722h-9.797V1.806H88.8Z" fill="#fff"/><path d="m102.779 1.111-5.91 9.722v.028l-.028-.028-5.883-9.722h-2.19l6.842 10.333v7.417h1.697v-7.417l6.84-10.333h-1.368ZM111.257 1.139h-2.381l-7.197 17.722h1.505l2.381-6.417h8.127l2.381 6.417h2.408L111.257 1.14Zm-5.419 10.583 3.804-10.194 3.776 10.194h-7.58Z" fill="#fff"/><mask id="a" fill="#fff"><path d="M12.929 12.929a4.142 4.142 0 1 1-5.858 5.858 4.142 4.142 0 0 1 5.858-5.858Z"/><path d="M18.787 7.071a4.142 4.142 0 1 1-5.858 5.858 4.142 4.142 0 0 1 5.858-5.858Z"/><path d="M12.929 1.213A4.142 4.142 0 1 1 7.07 7.071a4.142 4.142 0 0 1 5.858-5.858Z"/><path d="M7.071 7.071a4.142 4.142 0 1 1-5.858 5.858A4.142 4.142 0 0 1 7.071 7.07Z"/></mask><path d="M12.222 13.636a3.142 3.142 0 0 1 0 4.444l1.414 1.414a5.142 5.142 0 0 0 0-7.272l-1.414 1.414Zm0 4.444a3.142 3.142 0 0 1-4.444 0l-1.414 1.414a5.142 5.142 0 0 0 7.272 0l-1.414-1.414Zm-4.444 0a3.142 3.142 0 0 1 0-4.444l-1.414-1.414a5.142 5.142 0 0 0 0 7.272l1.414-1.414Zm0-4.444a3.142 3.142 0 0 1 4.444 0l1.414-1.414a5.142 5.142 0 0 0-7.272 0l1.414 1.414ZM18.08 7.778a3.142 3.142 0 0 1 0 4.444l1.414 1.414a5.142 5.142 0 0 0 0-7.272L18.08 7.778Zm0 4.444a3.142 3.142 0 0 1-4.444 0l-1.414 1.414a5.142 5.142 0 0 0 7.272 0l-1.414-1.414Zm-4.444 0a3.142 3.142 0 0 1 0-4.444l-1.414-1.414a5.142 5.142 0 0 0 0 7.272l1.414-1.414Zm0-4.444a3.142 3.142 0 0 1 4.444 0l1.414-1.414a5.142 5.142 0 0 0-7.272 0l1.414 1.414ZM12.222 1.92a3.142 3.142 0 0 1 0 4.444l1.414 1.414a5.142 5.142 0 0 0 0-7.272L12.222 1.92Zm0 4.444a3.142 3.142 0 0 1-4.444 0L6.364 7.778a5.142 5.142 0 0 0 7.272 0l-1.414-1.414Zm-4.444 0a3.142 3.142 0 0 1 0-4.444L6.364.506a5.142 5.142 0 0 0 0 7.272l1.414-1.414Zm0-4.444a3.142 3.142 0 0 1 4.444 0L13.636.506a5.142 5.142 0 0 0-7.272 0L7.778 1.92ZM6.364 7.778a3.142 3.142 0 0 1 0 4.444l1.414 1.414a5.142 5.142 0 0 0 0-7.272L6.364 7.778Zm0 4.444a3.142 3.142 0 0 1-4.444 0L.506 13.636a5.142 5.142 0 0 0 7.272 0l-1.414-1.414Zm-4.444 0a3.142 3.142 0 0 1 0-4.444L.506 6.364a5.142 5.142 0 0 0 0 7.272l1.414-1.414Zm0-4.444a3.142 3.142 0 0 1 4.444 0l1.414-1.414a5.142 5.142 0 0 0-7.272 0L1.92 7.778Z" fill="#fff" mask="url(#a)"/></svg>
